svg/fluentui-system-icons/ic_fluent_key_command_20_filled.svg

<svg width="20" height="20" viewBox="0 0 20 20" fill="none" xmlns="http://www.w3.org/2000/svg">
<path d="M5.75 4.5C6.44036 4.5 7 5.05964 7 5.75V7H5.75C5.05964 7 4.5 6.44036 4.5 5.75C4.5 5.05964 5.05964 4.5 5.75 4.5ZM8.5 7V5.75C8.5 4.23122 7.26878 3 5.75 3C4.23122 3 3 4.23122 3 5.75C3 7.26878 4.23122 8.5 5.75 8.5H7V11.5H5.75C4.23122 11.5 3 12.7312 3 14.25C3 15.7688 4.23122 17 5.75 17C7.26878 17 8.5 15.7688 8.5 14.25V13H11.5V14.25C11.5 15.7688 12.7312 17 14.25 17C15.7688 17 17 15.7688 17 14.25C17 12.7312 15.7688 11.5 14.25 11.5H13V8.5H14.25C15.7688 8.5 17 7.26878 17 5.75C17 4.23122 15.7688 3 14.25 3C12.7312 3 11.5 4.23122 11.5 5.75V7H8.5ZM8.5 8.5H11.5V11.5H8.5V8.5ZM13 7V5.75C13 5.05964 13.5596 4.5 14.25 4.5C14.9404 4.5 15.5 5.05964 15.5 5.75C15.5 6.44036 14.9404 7 14.25 7H13ZM13 13H14.25C14.9404 13 15.5 13.5596 15.5 14.25C15.5 14.9404 14.9404 15.5 14.25 15.5C13.5596 15.5 13 14.9404 13 14.25V13ZM7 13V14.25C7 14.9404 6.44036 15.5 5.75 15.5C5.05964 15.5 4.5 14.9404 4.5 14.25C4.5 13.5596 5.05964 13 5.75 13H7Z" fill="#212121"/>
</svg>

<svg xmlns="http://www.w3.org/2000/svg" width="20" height="20"><path d="M5.75 4.5C6.44 4.5 7 5.06 7 5.75V7H5.75a1.25 1.25 0 1 1 0-2.5ZM8.5 7V5.75A2.75 2.75 0 1 0 5.75 8.5H7v3H5.75a2.75 2.75 0 1 0 2.75 2.75V13h3v1.25a2.75 2.75 0 1 0 2.75-2.75H13v-3h1.25a2.75 2.75 0 1 0-2.75-2.75V7h-3Zm0 1.5h3v3h-3v-3ZM13 7V5.75A1.25 1.25 0 1 1 14.25 7H13Zm0 6h1.25A1.25 1.25 0 1 1 13 14.25V13Zm-6 0v1.25A1.25 1.25 0 1 1 5.75 13H7Z"/></svg>
